X:65
T: Schlangenkoechin
N: D0067A
O: Europa, Mitteleuropa, Lothringen, Hambach
N: In der zweiten Zeile rhythmisch korrigiert; Variante zu D0067
R: Ballade
M: 3/4
L: 1/8
K: G
Bc | d2B2d2 | cBA2
cc | B2G2B2 | A4
D2 | G2G2AA | B2B2
Bc | d2B2A2 | G4

@@@ Tune index: 2587
